!!! OTL: Literature108
!!! Chapter: 5
!!! Section: III
!!! Page: 370
!!! Mode: 
!!! Encoder: DJB
**kern
*staff1
*I"Piano
=1-
*clefG2
*k[b-e-a-]
*c:
*M4/4
4r
4r
4r
4G/
=2
[2c/
8c/L]
8c/
8e-/
8d/J
=3
2d/
4c/
4c/
=4
[2f/
8f/L]
8f/
8a-/
8g/J
=5
2g/
4f/
4f/
=6
8f/L
8dd/J
2dd\
4cc\
=7
8bn\L
8ff\J
2ff\
4ee-\
=8
8ee-\L
8dd\J
2cc\
4bn\
=9
4cc\
4r
2r
==
*-
